X:1
T:Immergrün, 10.9.10.9 D
T:Immergrün, 10.9.10.9 D
T:William Henry Quillen, 1919
T:Public Domain Courtesy of the Cyber Hymnal™
C:William Henry Quillen, 1919
Z:Public Domain
Z:Courtesy of the Cyber Hymnal™
%%score ( 1 2 ) ( 3 4 )
L:1/8
Q:1/4=82
M:6/8
K:F#
V:1 treble 
V:2 treble 
V:3 bass 
V:4 bass 
V:1
 C/C/ | A>AA A>BA | A G4 E/F/ x3 | G>GG GAG | F3- F2 C/C/ | A>AA A>Bc | c B4 B/B/ x | %7
 A>GF G!fermata!AG | F3- F2 [CF]/[CG]/ | [FA]>[FA][FA] [FA]>[FG][CF] | [FA] [EG]4 [CE]/[DF]/ | %11
 [EG]>[EG][EG] [EG]>[FA][GB] | A3- A2 [CA]/[CB]/ | [Fc]>[Fc][Fc] [Fd]>[Fc][FA] | %14
 [FB] [Fd]4 [GB]/[GB]/ | [FA]>[EG][DF] [EG]!fermata![EA][EG] | z2 [CF]2 x |] %17
V:2
 x | x6 | x9 | x6 | x6 | x6 | x7 | x6 | x6 | x6 | x6 | x6 | F4 x2 | x6 | x6 | x6 | F3 D x |] %17
V:3
 A,/A,/ | C>CC C>D[F,C] | C z2 G,/A,/ x5 | B,>B,B, B,C[C,B,] | [F,A,]3- [F,A,]2 A,/A,/ | %5
 C>CC C>D[F,=E] | D z2 [B,,B,D]2 =D/D/ x | C>B,A, [C,B,]!fermata![C,C][C,B,] | %8
 [F,,F,A,]3- [F,,F,A,]2 [F,A,]/[F,B,]/ | [F,C]>[F,C][F,C] [F,C]>[F,B,][F,A,] | %10
 [C,C] [C,C]4 [C,G,]/[C,G,]/ | [C,C]>[C,C][C,C] [C,C]>[C,C][C,C] | [F,C]3- [F,C]2 F,/[F,G,]/ | %13
 [F,A,]>[F,A,][F,A,] [F,B,]>[F,A,][F,C] | [B,,D] [B,,B,]4 [B,,D]/[B,,D]/ | %15
 [C,C]>[C,B,][D,A,] [C,B,]!fermata![C,C][C,B,] | A,2 B, [F,A,]2 |] %17
V:4
 x | F,3- F,2 x | C,3- B,4 C,2 | C,3- C,2 x | x6 | F,3- F,2 x | [B,,B,]3- =D4 | C,3- x3 | x6 | x6 | %10
 x6 | x6 | x5 F,/ x/ | x6 | x6 | x6 | F,3- x2 |] %17

